X: 35279
T: Rose Mooney
R: strathspey
M: 4/4
K: Amajor
AB (3cBA FAEF|A2 cA FABc|A2 cA FAEf|ecBd c<AAB|
A2 cA FAEF|A2 cA EFAB|A2 cA FAEf|ecBd c<AAf||
eA (3cBA edcd|e<AcA defa|eA (3cBA edce|d<BcA B<FFf|
ed (3ccd edcd|e<AcA def^g|a^gaf edce|d<BcA B<FFB||

